store-search.svg

<svg fill="currentColor" viewBox="0 0 24 24"><path d="M11.9 10.9a6.53 6.53 0 0 0-1.9 4.6V12H4v4h6v-.5c0 .85.17 1.7.5 2.5H2v-6H1v-2l1-5h16l.89 4.46a6.47 6.47 0 0 0-6.99 1.44M18 2H2v2h16zm5.39 19L22 22.39l-3.12-3.07c-.69.43-1.51.68-2.38.68-2.5 0-4.5-2-4.5-4.5s2-4.5 4.5-4.5 4.5 2 4.5 4.5c0 .88-.25 1.71-.69 2.4zM19 15.5a2.5 2.5 0 0 0-5 0 2.5 2.5 0 0 0 5 0"/></svg>

<svg  viewBox="0 0 24 24" fill="currentColor"><path  d="M11.9 10.9C10.64 12.17 10 13.84 10 15.5V12H4V16H10V15.5C10 16.35 10.17 17.2 10.5 18H2V12H1V10L2 5H18L18.89 9.46C16.56 8.53 13.79 9 11.9 10.9M18 2H2V4H18V2M23.39 21L22 22.39L18.88 19.32C18.19 19.75 17.37 20 16.5 20C14 20 12 18 12 15.5S14 11 16.5 11 21 13 21 15.5C21 16.38 20.75 17.21 20.31 17.9L23.39 21M19 15.5C19 14.12 17.88 13 16.5 13S14 14.12 14 15.5 15.12 18 16.5 18 19 16.88 19 15.5Z"/></svg>
